docs/images/icons/order.svg

<svg width="49" height="60" viewBox="0 0 49 60" fill="none" xmlns="http://www.w3.org/2000/svg">
<path fill-rule="evenodd" clip-rule="evenodd" d="M19.7364 6.14165H29.4656C30.4549 6.14165 30.4549 4.6499 29.4656 4.6499H19.7364C18.7497 4.6525 18.7497 6.14165 19.7364 6.14165ZM28.0207 35.9349C30.8115 35.9349 33.0843 38.2077 33.0843 40.9985V43.8336C33.0843 44.4845 32.5688 45.0155 31.918 45.0155H17.2869C16.6517 45.0155 16.1206 44.4844 16.1206 43.8336V40.9985C16.1206 38.2077 18.3934 35.9349 21.1843 35.9349H28.0207ZM24.6102 35.2267C27.0157 35.2267 28.9657 33.2768 28.9657 30.8713C28.9657 28.4501 27.0157 26.5001 24.6102 26.5001C22.189 26.5001 20.2391 28.4501 20.2391 30.8713C20.2391 33.2768 22.189 35.2267 24.6102 35.2267ZM24.6102 28.0076C26.1904 28.0076 27.4739 29.278 27.4739 30.8713C27.4739 32.449 26.1878 33.7194 24.6102 33.7194C23.0325 33.7194 21.7464 32.449 21.7464 30.8713C21.7464 29.2754 23.0299 28.0076 24.6102 28.0076ZM17.6122 43.5083H31.5928V40.9986C31.5928 39.0357 29.9839 37.4268 28.0209 37.4268H21.1843C19.2213 37.4268 17.6124 39.0357 17.6124 40.9986L17.6122 43.5083ZM8.69554 22.1759H8.45863V56.5145C8.45863 57.6079 9.35942 58.5087 10.4502 58.5087H19.4996V57.371C19.4996 56.1448 20.4889 55.1425 21.7151 55.1425H27.4868C28.713 55.1425 29.7154 56.1474 29.7154 57.371V58.5087H38.7494C39.8428 58.5087 40.7436 57.6079 40.7436 56.5145L40.7462 26.1174H40.5093L36.4949 30.1631C35.831 30.827 35.0916 30.5328 35.0916 29.5878V26.1174H25.4671C24.0638 26.1174 22.9132 24.9667 22.9132 23.5479V22.1759H14.1138V25.6306C14.1138 26.6642 13.3458 26.8568 12.6663 26.1773L8.69554 22.1759ZM6.96685 22.1759H3.05394C1.65068 22.1759 0.5 21.0252 0.5 19.622L0.502603 10.8952C0.502603 9.47639 1.65335 8.32567 3.05654 8.32567H6.96945V3.49897C6.96945 1.58027 8.53414 0 10.4528 0H38.7545C40.6732 0 42.2535 1.58027 42.2535 3.49897V12.2671H46.1508C47.554 12.2671 48.7047 13.4178 48.7047 14.8366L48.7021 23.5474C48.7021 24.9636 47.5514 26.117 46.1482 26.117H42.2508V56.514C42.2508 58.4353 40.6706 60 38.7519 60H10.4502C8.53153 60 6.96685 58.4353 6.96685 56.514V22.1759ZM8.45859 8.32601H23.7381C25.1414 8.32601 26.292 9.47676 26.292 10.8956V12.2676H40.7464V3.4995C40.7464 2.39302 39.8456 1.50789 38.7522 1.50789H10.4506C9.35715 1.50789 8.45896 2.39302 8.45896 3.4995L8.45859 8.32601ZM28.2108 58.5065V57.3689C28.2108 56.9706 27.8854 56.6452 27.4871 56.6452H21.7153C21.317 56.6452 20.9916 56.9706 20.9916 57.3689V58.5065H28.2108ZM24.7873 12.3715V10.8954C24.7873 10.3201 24.3135 9.84883 23.7408 9.84883H3.05686C2.49453 9.84883 2.02331 10.3227 2.02331 10.8954V19.6222C2.02331 20.1845 2.49712 20.6557 3.05686 20.6557H8.91716C9.22696 20.6557 9.37534 20.687 9.64086 20.9213L12.5931 23.7121V21.4107C12.5931 20.9968 12.9472 20.6558 13.3611 20.6558H22.913V14.8397C22.913 13.6578 23.7095 12.6683 24.7873 12.3715ZM36.6118 27.6377V25.3493C36.6118 24.9353 36.2708 24.5969 35.8439 24.5969H25.4669C24.9046 24.5969 24.4334 24.1231 24.4334 23.5477V14.8369C24.4334 14.2616 24.9072 13.7904 25.4669 13.7904H46.1482C46.7235 13.7904 47.1817 14.2642 47.1817 14.8369L47.1843 23.5477C47.1843 24.1231 46.7261 24.5969 46.1508 24.5969H40.3347C40.0093 24.5969 39.861 24.5969 39.5798 24.8624L36.6118 27.6377ZM40.0822 21.8659C41.0584 21.8659 41.0584 20.3741 40.0822 20.3741H31.548C30.5587 20.3741 30.5587 21.8659 31.548 21.8659H40.0822ZM40.0822 18.0129C41.0584 18.0129 41.0584 16.5211 40.0822 16.5211H31.548C30.5587 16.5211 30.5587 18.0129 31.548 18.0129H40.0822ZM9.13796 17.9218C8.14865 17.9218 8.14865 16.4326 9.13796 16.4326H17.6721C18.6458 16.4326 18.6458 17.9218 17.6721 17.9218H9.13796ZM9.13796 14.0844C8.14865 14.0844 8.14865 12.5796 9.13796 12.5796H17.6721C18.6458 12.5796 18.6458 14.0844 17.6721 14.0844H9.13796Z" fill="white"/>
</svg>

<svg width="49" height="60" fill="none" xmlns="http://www.w3.org/2000/svg"><path fill-rule="evenodd" clip-rule="evenodd" d="M19.736 6.142h9.73c.989 0 .989-1.492 0-1.492h-9.73c-.986.002-.986 1.492 0 1.492Zm8.285 29.793a5.071 5.071 0 0 1 5.063 5.063v2.836a1.17 1.17 0 0 1-1.166 1.181H17.287a1.181 1.181 0 0 1-1.166-1.181v-2.836a5.071 5.071 0 0 1 5.063-5.063h6.837Zm-3.41-.708a4.355 4.355 0 0 0 4.355-4.356 4.359 4.359 0 0 0-4.356-4.37 4.362 4.362 0 0 0-4.37 4.37 4.359 4.359 0 0 0 4.37 4.356Zm0-7.22a2.857 2.857 0 1 1 0 5.712 2.855 2.855 0 1 1 0-5.711Zm-6.999 15.501h13.98v-2.51a3.584 3.584 0 0 0-3.571-3.571h-6.837a3.584 3.584 0 0 0-3.572 3.572v2.51ZM8.696 22.176h-.237v34.338c0 1.094.9 1.995 1.991 1.995h9.05V57.37c0-1.226.989-2.229 2.215-2.229h5.772a2.236 2.236 0 0 1 2.228 2.229v1.138h9.034a2.005 2.005 0 0 0 1.995-1.995l.002-30.397h-.237l-4.014 4.046c-.664.664-1.403.37-1.403-.575v-3.47h-9.625a2.567 2.567 0 0 1-2.554-2.57v-1.372h-8.8v3.455c0 1.033-.767 1.226-1.447.546l-3.97-4.001Zm-1.73 0H3.055A2.563 2.563 0 0 1 .5 19.622l.003-8.727c0-1.419 1.15-2.57 2.554-2.57h3.912V3.5C6.97 1.58 8.534 0 10.453 0h28.302a3.517 3.517 0 0 1 3.498 3.499v8.768h3.898a2.567 2.567 0 0 1 2.554 2.57l-.003 8.71c0 1.417-1.15 2.57-2.554 2.57h-3.897v30.397c0 1.921-1.58 3.486-3.5 3.486h-28.3a3.49 3.49 0 0 1-3.484-3.486V22.176ZM8.46 8.326h15.28a2.567 2.567 0 0 1 2.553 2.57v1.372h14.454V3.499c0-1.106-.9-1.991-1.994-1.991H10.451a1.992 1.992 0 0 0-1.992 1.991v4.827Zm19.752 50.18V57.37a.725.725 0 0 0-.724-.724h-5.772a.725.725 0 0 0-.723.724v1.138h7.219Zm-3.424-46.135v-1.476a1.05 1.05 0 0 0-1.046-1.046H3.057a1.05 1.05 0 0 0-1.034 1.046v8.727c0 .563.474 1.034 1.034 1.034h5.86c.31 0 .458.031.724.265l2.952 2.791v-2.301a.77.77 0 0 1 .768-.755h9.552V14.84c0-1.182.796-2.172 1.874-2.469Zm11.825 15.267v-2.289a.76.76 0 0 0-.768-.752H25.467a1.05 1.05 0 0 1-1.034-1.05v-8.71a1.05 1.05 0 0 1 1.034-1.047h20.681a1.04 1.04 0 0 1 1.034 1.047l.002 8.71c0 .576-.458 1.05-1.033 1.05h-5.816c-.326 0-.474 0-.755.265l-2.968 2.776Zm3.47-5.772c.976 0 .976-1.492 0-1.492h-8.534c-.99 0-.99 1.492 0 1.492h8.534Zm0-3.853c.976 0 .976-1.492 0-1.492h-8.534c-.99 0-.99 1.492 0 1.492h8.534Zm-30.944-.091c-.99 0-.99-1.49 0-1.49h8.534c.974 0 .974 1.49 0 1.49H9.138Zm0-3.838c-.99 0-.99-1.504 0-1.504h8.534c.974 0 .974 1.504 0 1.504H9.138Z" fill="#fff"/></svg>
